X: 39493
T: Tatter Jack Walsh
R: jig
M: 6/8
K: Dmixolydian
|:fef ded|cAB c2 A|dcA GFG|Ad^c d3|
fef ded|cAB c2 A|dcA GFG|Ad^c d3:|
|:dfa afd|dfa a3|d^ce fge|d^ce/f/ g3|
fef ded|cAB c2 A|dcA GFG|Ad^c d3:|

